X:1
T: The Rivals
C:
R:Jig
Q:180
K:G
M:6/8
L:1/16
|:ag|e2c2A2 A2B2A2|c2B2A2 A2a2f2|e2c2A2 A2B2A2|d2B2G2 G2B2d2|
c2B2A2 A2B2A2|e2c2A2 A2c2e2|f2e2d2 e2d2^c2|d2B2G2 A4:|
|:cB|A2a2a2 a2e2a2|c2B2A2 A2B2A2|G2g2f2 g2f2g2|d2B2G2 G2c2B2|
A2a2a2 a2e2a2|f2g2a2 e2f2g2|f2e2d2 e2d2^c2|d2B2G2 A4:|
|:cB|A2a2a2 e4a2|c2B2A2 A2c2B2|A2a2a2 e2f2g2|d2B2G2 G2c2B2|
A2a2a2 e2f2g2|f2g2a2 e2f2g2|f2e2d2 e2d2^c2|d2B2G2 A4:|
